icon_installer/data/icons/scalable/actions/show-eraser3-symbolic.svg

<?xml version="1.0" encoding="UTF-8"?>
<svg height="16px" viewBox="0 0 16 16" width="16px" xmlns="http://www.w3.org/2000/svg">
    <g fill="#222222">
        <path d="m 13.949219 8.359375 s 0 0.019531 0.003906 0.011719 l -5.003906 4.914062 l 0.699219 -0.285156 h -4.621094 l 0.707031 0.292969 l -3.683594 -3.683594 v -0.019531 l 6.554688 -6.554688 h 0.019531 l -0.292969 -0.707031 c 0 0.265625 0.105469 0.519531 0.292969 0.707031 z m -3.617188 -6.03125 c 0 -0.265625 -0.105469 -0.519531 -0.292969 -0.707031 c -0.789062 -0.789063 -2.058593 -0.789063 -2.847656 0 l -6.554687 6.554687 c -0.789063 0.789063 -0.789063 2.058594 0 2.847657 l 3.683593 3.683593 c 0.1875 0.1875 0.441407 0.292969 0.707032 0.292969 h 4.621094 c 0.261718 0 0.511718 -0.101562 0.699218 -0.285156 l 5.015625 -4.921875 c 0.789063 -0.789063 0.789063 -2.058594 0 -2.847657 l -5.324219 -5.324218 z m 0 0"/>
        <path d="m 5.664062 15 h 9.804688 c 0.273438 0 0.5 -0.222656 0.5 -0.5 s -0.226562 -0.5 -0.5 -0.5 h -9.804688 c -0.277343 0 -0.5 0.222656 -0.5 0.5 s 0.222657 0.5 0.5 0.5 z m 0 0"/>
        <path d="m 4.277344 7.007812 l 6.015625 5.992188 c 0.195312 0.195312 0.511719 0.195312 0.707031 0 s 0.195312 -0.511719 0 -0.707031 l -6.015625 -5.996094 c -0.195313 -0.195313 -0.511719 -0.195313 -0.707031 0.003906 c -0.195313 0.195313 -0.195313 0.511719 0 0.707031 z m 0 0"/>
        <path d="m 4.132812 6.152344 l -3.03125 3.257812 l 3.527344 4.402344 l 4.929688 0.1875 l 1.589844 -1.34375 z m 0 0" fill-opacity="0.329412"/>
    </g>
</svg>

<svg xmlns="http://www.w3.org/2000/svg" width="16" height="16"><g fill="#222"><path d="M13.95 8.36s0 .019.003.011L8.95 13.285l.7-.285H5.026l.707.293L2.05 9.609v-.02l6.554-6.554h.02l-.293-.707a1 1 0 0 0 .293.707zm-3.618-6.032a1 1 0 0 0-.293-.707 2.009 2.009 0 0 0-2.848 0L.637 8.176a2.006 2.006 0 0 0 0 2.847l3.683 3.684a1 1 0 0 0 .707.293h4.621a.997.997 0 0 0 .7-.285l5.015-4.922c.79-.79.79-2.059 0-2.848L10.04 1.621zm0 0"/><path d="M5.664 15h9.805a.501.501 0 0 0 0-1H5.664a.499.499 0 1 0 0 1zM4.277 7.008 10.293 13a.5.5 0 1 0 .707-.707L4.984 6.297a.496.496 0 0 0-.707.004.5.5 0 0 0 0 .707zm0 0"/><path fill-opacity=".329" d="M4.133 6.152 1.102 9.41l3.527 4.403 4.93.187 1.59-1.344zm0 0"/></g></svg>
